X:140
T:La Nouvelle. VWMLa.140
%%VWML:Anon2-3049-p82-0
F:http://www.vwml.org/record/Anon2/3049/p82
S:Anon. MS, late 18thC, Vaughan Williams Mem. Library
O:England;Yorkshire
Z:vmp/efdss.Simon Wilson. Reviewed PJH 2008.
M:6/8
L:1/8
Q:3/8=120
K:G
(B,D).G G2A|(Bd).d d2g|(dB).g (ec)B|cAG FED|\
(B,D)G G2A|(Bd).d d2g|(gd)e dcB|[D3B3] [D2A2]z:|
d2d BGD|(B,D).G DB,G,|B,2D G2B|cAG FED|\
(B,D).G G2A|B2d g2d|ecB AGF|G3 G,3:|
T:Cassino. VWMLa.141
R:Jig
S:Anon. MS, late 18thC, Vaughan Williams Mem. Library
N:The same as in the John Clare: great tune. PJH.
O:England;Yorkshire
Z:vmp/efdss.Simon Wilson. Reviewed PJH 2008.
M:6/8
L:1/8
Q:3/8=120
K:A
c2B c2B|A2A ABc|d2c d2c|B2B B2c|\
d2d def|fed cde|edc B2c|A2A A3:|
|:e2e ecA|f2f f3|d2d dBG|e2e e3|\
A2E c2A|e2c a2e|fed cBA|B2!D.C.!EE3:|
